X: 2
T: Denis Murphy's
R: slide
M: 12/8
L: 1/8
K: Dmaj
A | d<df>d g>ef>d | B<Be>d c<AA>c |
d<df>d g>ef>d | B>e d/c/B/A/ d2- d :|
B | A>D F/E/D A>Bd>f | g>ef>d e>dB<d |
A>D F/E/D A>Bd>b | a<fe>f d2- d :|]


Tune 159	Setting 12783

